epam-assets/icon-sources/18/cv.svg

<svg width="18" height="18" viewBox="0 0 18 18" fill="none" xmlns="http://www.w3.org/2000/svg">
<g id="18/cv">
<path id="icon" fill-rule="evenodd" clip-rule="evenodd" d="M9 16.5C13.1421 16.5 16.5 13.1421 16.5 9C16.5 4.85786 13.1421 1.5 9 1.5C4.85786 1.5 1.5 4.85786 1.5 9C1.5 13.1421 4.85786 16.5 9 16.5ZM4.89455 12.5497C5.27148 12.6832 5.66494 12.75 6.07493 12.75C6.49154 12.75 6.87838 12.6699 7.23547 12.5096C7.59917 12.3494 7.91989 12.109 8.19763 11.7886L7.3049 10.707C7.16604 10.8605 6.99741 10.9941 6.79903 11.1076C6.60726 11.2144 6.38573 11.2678 6.13445 11.2678C5.71784 11.2678 5.38059 11.1042 5.12269 10.7771C4.87141 10.4499 4.74577 9.97923 4.74577 9.36498C4.74577 9.07122 4.78214 8.80749 4.85488 8.57381C4.93423 8.34013 5.03673 8.14318 5.16237 7.98294C5.29463 7.8227 5.44341 7.69918 5.60873 7.61239C5.78066 7.52559 5.96251 7.4822 6.15428 7.4822C6.37251 7.4822 6.56427 7.52893 6.72959 7.6224C6.90153 7.7092 7.06684 7.8227 7.22555 7.96291L8.11827 6.86128C7.88683 6.6276 7.60248 6.4273 7.26523 6.26039C6.92798 6.0868 6.54444 6 6.11461 6C5.70462 6 5.31116 6.07678 4.93423 6.23034C4.56392 6.3839 4.23328 6.60757 3.94232 6.90134C3.65797 7.18843 3.42983 7.54562 3.2579 7.97292C3.08597 8.39355 3 8.8776 3 9.42507C3 9.97923 3.08266 10.4666 3.24798 10.8872C3.4133 11.3012 3.63482 11.6484 3.91256 11.9288C4.19691 12.2025 4.52424 12.4095 4.89455 12.5497ZM8.37787 6.12018L10.2823 12.6298H12.3455L14.25 6.12018H12.5042L11.8496 8.96439C11.7636 9.31157 11.6843 9.65542 11.6115 9.99592C11.5454 10.3297 11.466 10.6736 11.3735 11.0274H11.3338C11.2412 10.6736 11.1618 10.3297 11.0957 9.99592C11.0296 9.65542 10.9502 9.31157 10.8577 8.96439L10.1832 6.12018H8.37787Z" fill="#6C6F80"/>
</g>
</svg>

<svg xmlns="http://www.w3.org/2000/svg" width="18" height="18" fill="none" viewBox="0 0 18 18">
  <path fill="#6C6F80" fill-rule="evenodd" d="M9 16.5a7.5 7.5 0 1 0 0-15 7.5 7.5 0 0 0 0 15Zm-4.105-3.95c.376.133.77.2 1.18.2a2.8 2.8 0 0 0 1.16-.24c.364-.16.685-.401.963-.721l-.893-1.082a2.043 2.043 0 0 1-.506.4c-.192.107-.413.16-.665.16-.416 0-.753-.163-1.011-.49-.252-.327-.377-.798-.377-1.412 0-.294.036-.558.109-.791.08-.234.182-.43.307-.591.133-.16.281-.284.447-.37.172-.087.354-.13.545-.13.219 0 .41.046.576.14.172.086.337.2.496.34l.892-1.102a3.16 3.16 0 0 0-.853-.6A2.478 2.478 0 0 0 6.115 6a3.007 3.007 0 0 0-2.172.901 3.194 3.194 0 0 0-.685 1.072C3.086 8.393 3 8.878 3 9.425c0 .554.083 1.042.248 1.462.165.414.387.761.665 1.042.284.274.611.48.982.62Zm3.483-6.43 1.904 6.51h2.063l1.905-6.51h-1.746l-.654 2.844c-.086.348-.166.691-.239 1.032-.066.334-.145.678-.238 1.031h-.04a17.52 17.52 0 0 1-.237-1.031c-.066-.34-.146-.684-.238-1.032l-.675-2.844H8.378Z" clip-rule="evenodd"/>
</svg>
